Papirus-GTK/24x24/apps/wps-office-etmain.svg

<svg height="24" width="24" xmlns="http://www.w3.org/2000/svg"><g transform="matrix(.49998947 0 0 .49998947 -.47146297 .50025279)"><path d="m9 39h21c0 0 9 0 9-7.5 0-7.5-9-7.5-9-7.5h-12c0 0-9 0-9-7.5 0-7.5 9-7.5 9-7.5h21" fill="none" stroke="#50bc34" stroke-linecap="round" stroke-linejoin="round" stroke-width="8"/><path d="m43.021 8.5117a4.0004 4.0004 0 0 1 -4.021 4.4883h-21c0 0-1.5849.05554-2.9609.62891-1.256.523-1.912.71-2.018 2.371-.01-.159-.021-.313-.021-.5 0-2.15.663-2.298 2.039-2.871 1.376-.573 2.961-.629 2.961-.629h21a4.0004 4.0004 0 0 0 4.021-3.4883zm-38 7.4883c.23188 5.0716 3.9149 8.4937 6.9395 9.7539 3.124 1.302 6.039 1.246 6.039 1.246h12c0 0 1.5849.05554 2.9609.62891 1.376.573 2.039.721 2.039 2.871 0 .187-.011.341-.021.5-.106-1.661-.762-1.848-2.018-2.371-1.376-.573-2.961-.629-2.961-.629h-12c0 0-2.9151.05554-6.0391-1.2461-3.124-1.302-6.961-4.904-6.961-10.254 0-.17.0139-.333.0215-.5zm37.958 15c .007.167.021.33.021.5 0 5.35-3.837 8.952-6.961 10.254-3.124 1.302-6.039 1.246-6.039 1.246h-21a4.0004 4.0004 0 0 1 -4.0215-4.512 4.0004 4.0004 0 0 0  4.0215 3.512h21c0 0 2.9151.05554 6.0391-1.2461 3.025-1.26 6.708-4.682 6.94-9.754z" fill-rule="evenodd" opacity=".3"/><path d="m39 5a4.0004 4.0004 0 0 1 4.021 4.5117 4.0004 4.0004 0 0 0 -4.021-3.5117h-21c0 0-2.915-.0555-6.039 1.2461-3.0246 1.2602-6.7076 4.6819-6.9395 9.7539-.0076-.167-.0215-.33-.0215-.5 0-5.35 3.837-8.9523 6.961-10.254 3.124-1.3015 6.039-1.246 6.039-1.246zm-25.979 12c .10588 1.6607.76148 1.8477 2.0176 2.3711 1.376.573 2.961.629 2.961.629h12c0 0 2.9151-.05554 6.0391 1.2461 3.124 1.302 6.961 4.904 6.961 10.254 0 .17017-.01387.33338-.02148.5-.23188-5.0716-3.9149-8.4937-6.9395-9.7539-3.124-1.302-6.039-1.246-6.039-1.246h-12c0 0-1.585-.056-2.961-.629-1.376-.573-2.039-.721-2.039-2.871 0-.18746.01137-.34137.02148-.5zm21.958 15c .01.159.021.313.021.5 0 2.15-.663 2.298-2.039 2.871-1.376.573-2.961.629-2.961.629h-21a4.0004 4.0004 0 0 0 -4.0215 3.488 4.0004 4.0004 0 0 1  4.0215-4.488h21c0 0 1.5849-.05554 2.9609-.62891 1.256-.523 1.912-.71 2.018-2.371z" fill="#fff" fill-rule="evenodd" opacity=".2"/></g></svg>

<?xml version="1.0" encoding="UTF-8" standalone="no"?>
<!-- Created with Inkscape (http://www.inkscape.org/) -->

<svg
   xmlns:dc="http://purl.org/dc/elements/1.1/"
   xmlns:cc="http://creativecommons.org/ns#"
   xmlns:rdf="http://www.w3.org/1999/02/22-rdf-syntax-ns#"
   xmlns:svg="http://www.w3.org/2000/svg"
   xmlns="http://www.w3.org/2000/svg"
   xmlns:sodipodi="http://sodipodi.sourceforge.net/DTD/sodipodi-0.dtd"
   xmlns:inkscape="http://www.inkscape.org/namespaces/inkscape"
   id="svg3143"
   height="24"
   width="24"
   version="1.1"
   inkscape:version="0.91 r13725"
   sodipodi:docname="wps-office-etmain.svg">
  <defs
     id="defs9" />
  <sodipodi:namedview
     pagecolor="#ffffff"
     bordercolor="#666666"
     borderopacity="1"
     objecttolerance="10"
     gridtolerance="10"
     guidetolerance="10"
     inkscape:pageopacity="0"
     inkscape:pageshadow="2"
     inkscape:window-width="1600"
     inkscape:window-height="845"
     id="namedview7"
     showgrid="false"
     inkscape:zoom="1"
     inkscape:cx="-4.5254237"
     inkscape:cy="7.9322034"
     inkscape:window-x="0"
     inkscape:window-y="32"
     inkscape:window-maximized="1"
     inkscape:current-layer="svg3143" />
  <metadata
     id="metadata3148">
    <rdf:RDF>
      <cc:Work
         rdf:about="">
        <dc:format>image/svg+xml</dc:format>
        <dc:type
           rdf:resource="http://purl.org/dc/dcmitype/StillImage" />
        <dc:title />
      </cc:Work>
    </rdf:RDF>
  </metadata>
  <g
     id="g4137"
     transform="matrix(0.49998947,0,0,0.49998947,-0.47146297,0.50025279)">
    <path
       d="m 9,39 21,0 c 0,0 9,0 9,-7.5 C 39,24 30,24 30,24 L 18,24 C 18,24 9,24 9,16.5 9,9 18,9 18,9 l 21,0"
       id="path5473"
       inkscape:connector-curvature="0"
       style="fill:none;stroke:#50bc34;stroke-width:8;stroke-linecap:round;stroke-linejoin:round" />
    <path
       style="color:#000000;text-indent:0;text-decoration:none;text-decoration-line:none;text-decoration-style:solid;text-decoration-color:#000000;text-transform:none;block-progression:tb;white-space:normal;opacity:0.3;isolation:auto;mix-blend-mode:normal;solid-color:#000000;fill-rule:evenodd;color-rendering:auto;image-rendering:auto;shape-rendering:auto"
       d="M 43.021,8.5117 A 4.0004,4.0004 0 0 1 39,13 l -21,0 c 0,0 -1.5849,0.05554 -2.9609,0.62891 -1.256,0.523 -1.912,0.71 -2.018,2.371 -0.01,-0.159 -0.021,-0.313 -0.021,-0.5 0,-2.15 0.663,-2.298 2.039,-2.871 1.376,-0.573 2.961,-0.629 2.961,-0.629 l 21,0 a 4.0004,4.0004 0 0 0 4.021,-3.4883 z M 5.021,16 c 0.23188,5.0716 3.9149,8.4937 6.9395,9.7539 3.124,1.302 6.039,1.246 6.039,1.246 l 12,0 c 0,0 1.5849,0.05554 2.9609,0.62891 1.376,0.573 2.039,0.721 2.039,2.871 0,0.187 -0.011,0.341 -0.021,0.5 -0.106,-1.661 -0.762,-1.848 -2.018,-2.371 -1.376,-0.573 -2.961,-0.629 -2.961,-0.629 l -12,0 c 0,0 -2.9151,0.05554 -6.0391,-1.2461 -3.124,-1.302 -6.961,-4.904 -6.961,-10.254 0,-0.17 0.0139,-0.333 0.0215,-0.5 z M 42.979,31 C 42.986,31.167 43,31.33 43,31.5 43,36.85 39.163,40.452 36.039,41.754 32.915,43.056 30,43 30,43 L 9,43 A 4.0004,4.0004 0 0 1 4.9785,38.488 4.0004,4.0004 0 0 0 9,42 l 21,0 c 0,0 2.9151,0.05554 6.0391,-1.2461 3.025,-1.26 6.708,-4.682 6.94,-9.754 z"
       id="path5526"
       inkscape:connector-curvature="0" />
    <path
       d="M 39,5 A 4.0004,4.0004 0 0 1 43.021,9.5117 4.0004,4.0004 0 0 0 39,6 L 18,6 C 18,6 15.085,5.9445 11.961,7.2461 8.9364,8.5063 5.2534,11.928 5.0215,17 5.0139,16.833 5,16.67 5,16.5 5,11.15 8.837,7.5477 11.961,6.246 15.085,4.9445 18,5 18,5 L 39,5 Z M 13.021,17 c 0.10588,1.6607 0.76148,1.8477 2.0176,2.3711 1.376,0.573 2.961,0.629 2.961,0.629 l 12,0 c 0,0 2.9151,-0.05554 6.0391,1.2461 3.124,1.302 6.961,4.904 6.961,10.254 0,0.17017 -0.01387,0.33338 -0.02148,0.5 -0.23188,-5.0716 -3.9149,-8.4937 -6.9395,-9.7539 -3.124,-1.302 -6.039,-1.246 -6.039,-1.246 l -12,0 c 0,0 -1.585,-0.056 -2.961,-0.629 -1.376,-0.573 -2.039,-0.721 -2.039,-2.871 0,-0.18746 0.01137,-0.34137 0.02148,-0.5 z m 21.958,15 c 0.01,0.159 0.021,0.313 0.021,0.5 0,2.15 -0.663,2.298 -2.039,2.871 C 31.585,35.944 30,36 30,36 L 9,36 A 4.0004,4.0004 0 0 0 4.9785,39.488 4.0004,4.0004 0 0 1 9,35 l 21,0 c 0,0 1.5849,-0.05554 2.9609,-0.62891 1.256,-0.523 1.912,-0.71 2.018,-2.371 z"
       style="color:#000000;text-indent:0;text-decoration:none;text-decoration-line:none;text-decoration-style:solid;text-decoration-color:#000000;text-transform:none;block-progression:tb;white-space:normal;opacity:0.2;isolation:auto;mix-blend-mode:normal;solid-color:#000000;fill:#ffffff;fill-rule:evenodd;color-rendering:auto;image-rendering:auto;shape-rendering:auto"
       id="path5530"
       inkscape:connector-curvature="0" />
  </g>
</svg>
